X: 1
T: THE MORRIS OFF
S: Jour EFDSS, Vol 8.
O: Headington
B: Morris Ring
Z: 2005 John Chambers <jc@trillian.mit.edu>
M: 4/4
L: 1/8
K: G
P: A
[ec][fd] |\
  [g2e2]g2 g2a2 | g6     f2 | e2c2 c2d2 | B4 G2z2 |
  e2c2     c2d2 | e2c2 c2d2 | e2c2 c2d2 | B4 G2  ||
